img/logos/material-ui.svg

<?xml version="1.0" encoding="UTF-8" standalone="no"?>
<svg width="256px" height="208px" viewBox="0 0 256 208" version="1.1" xmlns="http://www.w3.org/2000/svg" xmlns:xlink="http://www.w3.org/1999/xlink" preserveAspectRatio="xMinYMin meet">
	<g>
		<path d="M15.6235294,35.0117647 L15.6235294,122.541176 L30.6823529,114.070588 L30.6823529,43.4823529 L15.6235294,35.0117647 Z" fill="#949494"></path>
		<path d="M0.564705882,114.070588 L0.564705882,8.65882353 L89.9764706,59.4823529 L89.9764706,77.3647059 L15.6235294,35.0117647 L15.6235294,122.541176 L0.564705882,114.070588 Z" fill="#EFEFEF"></path>
		<path d="M181.270588,8.65882353 L181.270588,114.070588 L121.035294,147.952941 L105.976471,138.541176 L166.211765,104.658824 L166.211765,34.0705882 L89.9764706,77.3647059 L89.9764706,59.4823529 L181.270588,8.65882353 Z" fill="#949494"></path>
		<path d="M166.211765,0.188235294 L90.9176471,42.5411765 L15.6235294,0.188235294 L0.564705882,8.65882353 L89.9764706,59.4823529 L181.270588,8.65882353 L166.211765,0.188235294 Z" fill="#D6D6D6"></path>
		<path d="M151.152941,42.5411765 L151.152941,96.1882353 L166.211765,104.658824 L166.211765,34.0705882 L151.152941,42.5411765 Z" fill="#EFEFEF"></path>
		<path d="M75.8588235,138.541176 L151.152941,96.1882353 L166.211765,104.658824 L105.976471,138.541176 L165.270588,172.423529 L225.505882,138.541176 L240.564706,147.011765 L165.270588,189.364706 L75.8588235,138.541176 Z" fill="#D6D6D6"></path>
		<path d="M75.8588235,138.541176 L75.8588235,156.423529 L165.270588,207.247059 L165.270588,189.364706 L75.8588235,138.541176 Z" fill="#EFEFEF"></path>
		<path d="M240.564706,147.011765 L240.564706,94.3058824 L225.505882,85.8352941 L225.505882,138.541176 L240.564706,147.011765 Z" fill="#EFEFEF"></path>
		<path d="M165.270588,189.364706 L240.564706,147.011765 L240.564706,94.3058824 L255.623529,85.8352941 L255.623529,156.423529 L165.270588,207.247059 L165.270588,189.364706 Z" fill="#949494"></path>
		<path d="M255.623529,85.8352941 L240.564706,94.3058824 L225.505882,85.8352941 L240.564706,77.3647059 L255.623529,85.8352941 Z" fill="#D6D6D6"></path>
		<path d="M240.564706,77.3647059 L240.564706,59.4823529 L255.623529,51.0117647 L255.623529,68.8941176 L240.564706,77.3647059 Z" fill="#949494"></path>
		<path d="M240.564706,59.4823529 L240.564706,77.3647059 L225.505882,68.8941176 L225.505882,51.0117647 L240.564706,59.4823529 Z" fill="#EFEFEF"></path>
		<path d="M255.623529,51.0117647 L240.564706,59.4823529 L225.505882,51.0117647 L240.564706,42.5411765 L255.623529,51.0117647 Z" fill="#D6D6D6"></path>
	</g>
</svg>

<svg width="256" height="208" viewBox="0 0 256 208" xmlns="http://www.w3.org/2000/svg" preserveAspectRatio="xMinYMin meet"><path d="M15.624 35.012v87.53l15.058-8.47V43.48l-15.058-8.47z" fill="#949494"/><path d="M.565 114.07V8.66l89.41 50.822v17.883l-74.35-42.353v87.53l-15.06-8.47z" fill="#EFEFEF"/><path d="M181.27 8.66v105.41l-60.235 33.883-15.06-9.412 60.237-33.88V34.07L89.976 77.366V59.482L181.27 8.66z" fill="#949494"/><path d="M166.212.188L90.918 42.54 15.624.19.564 8.658l89.412 50.824L181.27 8.66 166.213.187z" fill="#D6D6D6"/><path d="M151.153 42.54V96.19l15.06 8.47V34.072l-15.06 8.47z" fill="#EFEFEF"/><path d="M75.86 138.54l75.293-42.352 15.06 8.47-60.237 33.883 59.295 33.884 60.236-33.883 15.06 8.472-75.295 42.353-89.41-50.824z" fill="#D6D6D6"/><path d="M75.86 138.54v17.884l89.41 50.823v-17.882L75.86 138.54zM240.565 147.012V94.306l-15.06-8.47v52.705l15.06 8.472z" fill="#EFEFEF"/><path d="M165.27 189.365l75.295-42.353V94.306l15.06-8.47v70.588l-90.354 50.823v-17.882z" fill="#949494"/><path d="M255.624 85.835l-15.06 8.47-15.058-8.47 15.06-8.47 15.058 8.47z" fill="#D6D6D6"/><path d="M240.565 77.365V59.482l15.06-8.47v17.882l-15.06 8.47z" fill="#949494"/><path d="M240.565 59.482v17.883l-15.06-8.47V51.01l15.06 8.47z" fill="#EFEFEF"/><path d="M255.624 51.012l-15.06 8.47-15.058-8.47 15.06-8.47 15.058 8.47z" fill="#D6D6D6"/></svg>
